X:73
T:Sjoankans Vals
T:Sea Duck's Waltz
R:Waltz
C:Olav Johansson
M:3/4
L:1/8
Q:1/4=140
K:D
%P:A
"D"F2 FE FA | "G"G2 GF GB | "D"A2 AB AF | D4 F2 |
"A"E2 ED EG | "D"F2 DF DE | "A"z2 ED CE | "D"D4 E2 :|
%P:B
"D"F3 E DC |D2 F2 A2 | "G"G3 F Gd | "A"cA E4 | "G"G3 F Gd | "A"c4 Ac |
e4 dc |[1 "D"d2 AG FE :|[2 "D"d6|]

